!!!Melodie: Psalm 84
!!!Typ: Psalmlied
**kern	**silbe	**silbe	**silbe	**silbe	**silbe	**silbe
*clefG2	*lang:DE	*lang:DE	*lang:DE	*lang:DE	*lang:DE	*lang:DE
*k[f#,c#]	*	*	*	*	*	*
2d	Wie	Die	Wohl,	Wir	Du	Denn
4a	lieb#	Schwalb’,	wohl	wan#	un#	Gott
4g	#lich	der	dem	#dern	#ser	der
4f#	schön,	Sper#	Men#	in	Schild,	Herr
4e	Herr	#ling	#schen	der	Gott,	ist
2d	Ze#	find’t	in	Pil#	schau	Sonn’
2e	#ba#	ein	der	#ger#	uns	und
2f#	#oth,	Haus,	Welt,	#schaft	an,	Schild,
2r	%	%	%	%	%	%
=	=	=	=	=	=	=
2f#	ist	sie	der	und	schau	er
4b	dei#	brü#	dich	ge#	uns	deckt
4b	#ne	#ten	für	#hen	in	uns,
4a	Woh#	ih#	sei#	fort	dem	er
4f#	#nung,	#re	#ne	von	Ge#	ist
2a	o	Jun#	Stär#	Kraft	#salb#	gut
2g	mein	#gen	#ke	zu	#ten	und
2f#	Gott;	aus;	hält,	Kraft,	an.	mild,
2r	%	%	%	%	%	%
=	=	=	=	=	=	=
2a	wie	du	von	vor	Ein	er
4g	seh#	gibst	Her#	Gott	Tag	wird
4f#	#net	Be#	#zen	in	in	uns
4e	sich	#frie#	dei#	Zi#	dei#	Gnad’
4a	mein	#di#	#nen	#on	#nem	und
4g	Herz	#gung	Weg	zu	Haus	Eh#
4f#	zu	und	er#	er#	ist	#re
2e	ge#	Le#	#wäh#	#schei#	bes#	ge#
2d	#hen,	#ben,	#let!	#nen.	#ser,	#ben.
2r	%	%	%	%	%	%
=	=	=	=	=	=	=
2d	wo	Herr	Geht	Hör’	denn	Nichts
4f#	du	Ze#	hier	mein	tau#	man#
4g	dich	#ba#	sein	Ge#	#send	#gelt
2a	hast	#oth,	Pfad	#bet,	sonst,	dem,
2b	ge#	du	durch’s	Herr	ohn’	der
4a	#of#	wirst	Trä#	Ze#	dich	in
4g#	#fen#	auch	#nen#	#ba#	zu	der
2a	#bart,	mir,	#tal,	#oth,	seh’n;	Not
2r	%	%	%	%	%	%
=	=	=	=	=	=	=
2d	und	mein	er	ver#	ja	auf
4f#	bald	Herr,	fin#	#nimm's,	auf	Gott
4g	in	mein	#det	ver#	der	ver#
2a	dei#	Gott,	auch	#nimm's,	Schwel#	#traut,
2b	#ner	ich	in	o	#le	er
4a	Ge#	trau#	Not	Ja#	nur	hilft
4g#	#gen#	#e	und	#kobs	zu	im
2a	#wart,	dir,	Qual,	Gott.	steh’n	Tod,
2r	%	%	%	%	%	%
=	=	=	=	=	=	=
2dd	im	bei	dass	Er#	an	er
4cc#	Vor#	dei#	Trost	#quik#	mei#	sel#
4b	#hof,	#nem	und	#ke	#nes	#ber
2a	nah	Al#	Kraft	mich	Got#	ist
2f#	am	#tar	ihm	auch	#tes	der
4g	Thron	Freu#	nim#	mit	Haus,	From#
4a	zu	#de	#mer	den	ist	#men
2b	ste#	ge#	feh#	Dei#	grö#	Le#
2a	#hen.	#ben.	#let;	#nen;	#ßer,	#ben.
2r	%	%	%	%	%	%
=	=	=	=	=	=	=
2a	Dort	O	von	bis	als	Heil
4a	jauch#	se#	dir	wir	lang’	dem,
4g	#zet	#lig,	he#	vor	in	der
2f#	Leib	wer	#rab	dei#	stol#	stets
2b	und	dort	fließt	#nem	#zer	in
4a	Seel	al#	mild	Thro#	Ruh	die#
4g	in	#le#	und	#ne	der	#ser
2f#	mir,	#zeit	hell	steh’n	Welt	Welt,
2r	%	%	%	%	%	%
=	=	=	=	=	=	=
2d	o	in	auf	und	zu	Herr
4f#	Gott	dei#	ihn	dort	woh#	Ze#
4a	des	#nem	die	an#	#nen	#ba#
4e	Le#	Lo#	rei#	#be#	in	#oth,
4g	#bens,	#be	#che	#tend	der	an
2f#	auf	sich	Se#	dich	Bö#	dir
2e	zu	er#	#gens#	er#	#sen	sich
1d	dir.	#freut.	#quell.	#höh'n.	Zelt.	hält.
==	==	==	==	==	==	==
*-	*-	*-	*-	*-	*-	*-
